Newaita-dark/apps/24/com.github.artemanufrij.findfileconflicts.svg

<svg height="24" viewBox="0 0 24 24" width="24" xmlns="http://www.w3.org/2000/svg" xmlns:xlink="http://www.w3.org/1999/xlink"><linearGradient id="a"><stop offset="0" stop-opacity=".313726"/><stop offset=".222222" stop-opacity=".27451"/><stop offset="1" stop-opacity="0"/></linearGradient><radialGradient id="b" cx="450.908936" cy="189.579361" gradientTransform="matrix(.00000013 -.0585994 -.105479 -.00000008 33.392364 47.696497)" gradientUnits="userSpaceOnUse" r="21.166656" xlink:href="#a"/><radialGradient id="c" cx="450.908936" cy="189.579361" gradientTransform="matrix(-.00000013 .0585994 .105479 .00000008 -9.577589 -5.645612)" gradientUnits="userSpaceOnUse" r="21.166656" xlink:href="#a"/><radialGradient id="d" cx="450.908936" cy="189.579361" gradientTransform="matrix(-.00000013 -.0585994 .105479 -.00000008 -9.577589 47.696497)" gradientUnits="userSpaceOnUse" r="21.166656" xlink:href="#a"/><radialGradient id="e" cx="450.908936" cy="189.579361" gradientTransform="matrix(.00000013 .0585994 -.105479 .00000008 33.392362 -5.645612)" gradientUnits="userSpaceOnUse" r="21.166656" xlink:href="#a"/><linearGradient id="f" gradientTransform="matrix(.01002 0 0 .0468795 9.34904 10.079088)" gradientUnits="userSpaceOnUse" x1="255.323059" x2="255.323044" y1="233.5" y2="254.666656"><stop offset="0" stop-opacity=".27451"/><stop offset="1" stop-opacity="0"/></linearGradient><linearGradient id="g" gradientUnits="userSpaceOnUse" x1="11.907393" x2="11.907393" y1="2.17207774998" y2="21.02545025"><stop offset="0" stop-color="#ff8a65"/><stop offset="1" stop-color="#ff7043"/></linearGradient><linearGradient id="h" gradientTransform="matrix(.0232268 .04023 -.04023 .0232268 7.327864 .615653)" gradientUnits="userSpaceOnUse" x1="344.628418" x2="163.846085" y1="123.740433" y2="-57.04192"><stop offset="0" stop-color="#ffa726"/><stop offset="1" stop-color="#ffb74d"/></linearGradient><linearGradient id="i" gradientUnits="userSpaceOnUse" x1="11.907393" x2="11.907393" y1="21.02545025" y2="2.17207774998"><stop offset="0" stop-color="#424242"/><stop offset="1" stop-color="#616161"/></linearGradient><linearGradient id="j" gradientTransform="matrix(-.0468795 0 0 .0468795 23.814773 10.079087)" gradientUnits="userSpaceOnUse" x1="254" x2="254" y1="233.5" y2="-168.666672"><stop offset="0" stop-color="#bdbdbd"/><stop offset="1" stop-color="#e0e0e0"/></linearGradient><path d="m13.644531 21.027344h1.984375v-.996094h-1.984375zm0 0" fill="url(#b)"/><path d="m10.171875 21.027344h-1.984375v.992187h1.984375zm0 0" fill="url(#c)"/><path d="m10.171875 21.027344h-1.984375v-.996094h1.984375zm0 0" fill="url(#d)"/><path d="m13.644531 21.027344h1.984375v.992187h-1.984375zm0 0" fill="url(#e)"/><path d="m10.171875 20.777344h3.472656v1.242187h-3.472656zm0 0" fill="url(#f)"/><path d="m11.90625 2.171875c5.207031 0 9.429688 4.21875 9.429688 9.425781 0 5.207032-4.222657 9.429688-9.429688 9.429688-5.203125 0-9.425781-4.222656-9.425781-9.429688 0-5.207031 4.222656-9.425781 9.425781-9.425781zm0 0" fill="url(#g)"/><path d="m11.90625 21.027344c-5.222656 0-9.425781-4.207032-9.425781-9.429688 0-.03125 0-.058594 0-.089844.050781 5.179688 4.234375 9.332032 9.425781 9.332032s9.378906-4.152344 9.425781-9.332032c0 .03125.003907.058594.003907.089844 0 5.222656-4.207032 9.429688-9.429688 9.429688zm0 0" fill-opacity=".196078"/><path d="m11.90625 2.171875c-5.222656 0-9.425781 4.203125-9.425781 9.425781v.09375c.050781-5.179687 4.234375-9.335937 9.425781-9.335937s9.378906 4.15625 9.425781 9.335937c0-.03125.003907-.0625.003907-.09375 0-5.222656-4.207032-9.425781-9.429688-9.425781zm0 0" fill="#fff" fill-opacity=".392157"/><path d="m7.664062 14.046875c-.183593-.320313 1.652344-1.535156 1.574219-1.898437-.078125-.359376-2.246093-.722657-2.207031-1.089844.039062-.367188 2.234375-.273438 2.386719-.609375.148437-.335938-1.390625-1.90625-1.144531-2.179688.246093-.273437 1.96875 1.09375 2.289062.910157.320312-.1875-.007812-2.359376.355469-2.4375.359375-.078126.949219 2.042968 1.316406 2.082031.367187.039062 1.382813-1.914063 1.71875-1.761719.339844.148438-.433594 2.207031-.15625 2.457031.273437.246094 2.242187-.734375 2.425781-.414062.183594.320312-1.648437 1.53125-1.570312 1.894531.074218.359375 2.246094.722656 2.207031 1.089844-.039063.367187-2.238281.273437-2.386719.609375-.152344.339843 1.390625 1.90625 1.144532 2.179687-.246094.277344-1.96875-1.09375-2.289063-.90625-.320313.183594.003906 2.359375-.355469 2.433594-.363281.078125-.949218-2.042969-1.316406-2.078125-.367188-.039063-1.382812 1.910156-1.722656 1.761719-.335938-.152344.433594-2.210938.160156-2.457032-.273438-.25-2.242188.730469-2.429688.414063zm0 0" fill="url(#h)"/><path d="m11.90625 2.101562c-5.257812 0-9.496094 4.238282-9.496094 9.496094 0 5.261719 4.238282 9.5 9.496094 9.5 5.261719 0 9.5-4.238281 9.5-9.5 0-5.257812-4.238281-9.496094-9.5-9.496094zm0 .140626c5.1875 0 9.359375 4.171874 9.359375 9.355468 0 5.1875-4.171875 9.359375-9.359375 9.359375-5.183594 0-9.355469-4.171875-9.355469-9.359375 0-5.183594 4.171875-9.355468 9.355469-9.355468zm0 0" fill="#212121"/><path d="m6.933594 7.132812c-.269532.007813-.484375.226563-.484375.496094v1.488282h-4.15625c-.199219.792968-.308594 1.625-.308594 2.480468 0 .859375.109375 1.6875.308594 2.480469h4.15625v1.488281c0 .429688.503906.65625.824219.371094l4.464843-3.96875c.222657-.195312.222657-.542969 0-.738281l-4.464843-3.972657c-.085938-.074218-.199219-.121093-.316407-.125-.007812 0-.015625 0-.023437 0zm0 0" fill="url(#i)"/><path d="m16.882812 7.132812c-.007812 0-.019531 0-.027343 0-.117188.003907-.226563.050782-.316407.125l-4.464843 3.972657c-.21875.195312-.21875.542969 0 .738281l4.464843 3.96875c.320313.285156.824219.058594.824219-.371094v-1.488281h4.15625c.203125-.792969.3125-1.621094.3125-2.480469 0-.855468-.109375-1.6875-.3125-2.480468h-4.15625v-1.488282c0-.269531-.214843-.488281-.480469-.496094zm0 0" fill="url(#j)"/><path d="m6.933594 7.132812c-.269532.007813-.484375.226563-.484375.496094v.371094c0-.269531.214843-.488281.484375-.496094h.023437c.117188.003906.230469.050782.316407.125l4.464843 3.96875c.0625.054688.105469.117188.132813.1875.074218-.1875.03125-.414062-.132813-.554687l-4.464843-3.972657c-.085938-.074218-.199219-.121093-.316407-.125-.007812 0-.015625 0-.023437 0zm-4.640625 1.984376c-.199219.792968-.308594 1.625-.308594 2.480468v.1875c.015625-.792968.121094-1.558594.308594-2.296875h4.15625v-.371093zm0 0" fill="#efefef" fill-opacity=".313726"/><path d="m16.882812 7.132812c-.007812 0-.019531 0-.027343 0-.117188.003907-.226563.050782-.316407.125l-4.464843 3.972657c-.160157.140625-.203125.367187-.128907.554687.027344-.070312.070313-.132812.128907-.1875l4.464843-3.96875c.089844-.074218.199219-.121094.316407-.125h.027343c.265626.007813.480469.226563.480469.496094v-.371094c0-.269531-.214843-.488281-.480469-.496094zm.480469 1.984376v.371093h4.15625c.1875.738281.292969 1.503907.308594 2.296875 0-.0625.003906-.125.003906-.1875 0-.855468-.109375-1.6875-.3125-2.480468zm0 0" fill="#efefef"/><path d="m11.839844 11.847656c-.027344.042969-.058594.085938-.101563.121094l-4.464843 3.96875c-.320313.285156-.824219.058594-.824219-.367188v.496094c0 .425782.503906.652344.824219.367188l4.464843-3.96875c.183594-.160156.214844-.417969.101563-.617188zm-9.03125 2.230469c.042968.167969.09375.335937.148437.496094h3.492188v-.496094zm0 0" fill-opacity=".235294"/><path d="m11.976562 11.847656c-.117187.199219-.082031.457032.097657.617188l4.464843 3.96875c.320313.285156.824219.058594.824219-.367188v-.496094c0 .425782-.503906.652344-.824219.367188l-4.464843-3.96875c-.039063-.035156-.074219-.078125-.097657-.121094zm5.386719 2.230469v.496094h3.496094c.050781-.160157.101563-.328125.148437-.496094zm0 0" fill-opacity=".235294"/><g fill="none" stroke="#212121" stroke-linecap="round" stroke-linejoin="round" stroke-opacity=".954839"><path d="m559.001765 575.063225c-21.730209.629861-39.05139 18.265973-39.05139 39.996182v119.988548h-335.086129c-16.061459 63.930906-24.879515 131.011118-24.879515 199.980914 0 69.284725 8.818056 136.050007 24.879515 199.980913h335.086129v119.988548c0 34.642363 40.626043 52.908336 66.45035 29.918404l359.965644-319.969461c17.951043-15.746529 17.951043-43.77535 0-59.521878l-359.965644-320.284392c-6.928472-5.983681-16.061459-9.762848-25.509376-10.077778-.629861 0-1.259722 0-1.889584 0zm0 0" stroke-width="11.338583" transform="scale(.0124035)"/><path d="m360.132276-62.847863c5.666125.166651 10.249021 4.832872 10.249021 10.582323v31.746968h88.6582c4.33292 16.915051 6.66603 34.663356 6.66603 52.911614 0 18.331583-2.33311 35.996562-6.66603 52.911614h-88.6582v31.746968c0 9.165791-10.748974 13.998663-17.581654 7.915911l-95.240905-84.658582c-4.666221-4.166269-4.666221-11.582228 0-15.748497l95.240905-84.741907c1.916483-1.583182 4.249594-2.583087 6.749355-2.666412zm0 0" stroke-width="3" transform="matrix(.0468795 0 0 .0468795 0 10.079087)"/></g></svg>

<?xml version="1.0" encoding="UTF-8"?>
<svg xmlns="http://www.w3.org/2000/svg" xmlns:xlink="http://www.w3.org/1999/xlink" width="24px" height="24px" viewBox="0 0 24 24" version="1.1">
<defs>
<radialGradient id="radial0" gradientUnits="userSpaceOnUse" cx="450.908936" cy="189.579361" fx="450.908936" fy="189.579361" r="21.166656" gradientTransform="matrix(0.000000130628,-0.0585994,-0.105479,-0.0000000761539,33.392364,47.696497)">
<stop offset="0" style="stop-color:rgb(0%,0%,0%);stop-opacity:0.313726;"/>
<stop offset="0.222222" style="stop-color:rgb(0%,0%,0%);stop-opacity:0.27451;"/>
<stop offset="1" style="stop-color:rgb(0%,0%,0%);stop-opacity:0;"/>
</radialGradient>
<radialGradient id="radial1" gradientUnits="userSpaceOnUse" cx="450.908936" cy="189.579361" fx="450.908936" fy="189.579361" r="21.166656" gradientTransform="matrix(-0.000000130628,0.0585994,0.105479,0.0000000761539,-9.577589,-5.645612)">
<stop offset="0" style="stop-color:rgb(0%,0%,0%);stop-opacity:0.313726;"/>
<stop offset="0.222222" style="stop-color:rgb(0%,0%,0%);stop-opacity:0.27451;"/>
<stop offset="1" style="stop-color:rgb(0%,0%,0%);stop-opacity:0;"/>
</radialGradient>
<radialGradient id="radial2" gradientUnits="userSpaceOnUse" cx="450.908936" cy="189.579361" fx="450.908936" fy="189.579361" r="21.166656" gradientTransform="matrix(-0.000000130628,-0.0585994,0.105479,-0.0000000761539,-9.577589,47.696497)">
<stop offset="0" style="stop-color:rgb(0%,0%,0%);stop-opacity:0.313726;"/>
<stop offset="0.222222" style="stop-color:rgb(0%,0%,0%);stop-opacity:0.27451;"/>
<stop offset="1" style="stop-color:rgb(0%,0%,0%);stop-opacity:0;"/>
</radialGradient>
<radialGradient id="radial3" gradientUnits="userSpaceOnUse" cx="450.908936" cy="189.579361" fx="450.908936" fy="189.579361" r="21.166656" gradientTransform="matrix(0.000000130628,0.0585994,-0.105479,0.0000000761539,33.392362,-5.645612)">
<stop offset="0" style="stop-color:rgb(0%,0%,0%);stop-opacity:0.313726;"/>
<stop offset="0.222222" style="stop-color:rgb(0%,0%,0%);stop-opacity:0.27451;"/>
<stop offset="1" style="stop-color:rgb(0%,0%,0%);stop-opacity:0;"/>
</radialGradient>
<linearGradient id="linear0" gradientUnits="userSpaceOnUse" x1="255.323059" y1="233.5" x2="255.323044" y2="254.666656" gradientTransform="matrix(0.01002,0,0,0.0468795,9.34904,10.079088)">
<stop offset="0" style="stop-color:rgb(0%,0%,0%);stop-opacity:0.27451;"/>
<stop offset="1" style="stop-color:rgb(0%,0%,0%);stop-opacity:0;"/>
</linearGradient>
<linearGradient id="linear1" gradientUnits="userSpaceOnUse" x1="254" y1="-168.666672" x2="254" y2="233.5" gradientTransform="matrix(0.0468795,0,0,0.0468795,0,10.079087)">
<stop offset="0" style="stop-color:rgb(100%,54.11765%,39.607844%);stop-opacity:1;"/>
<stop offset="1" style="stop-color:rgb(100%,43.921569%,26.274511%);stop-opacity:1;"/>
</linearGradient>
<linearGradient id="linear2" gradientUnits="userSpaceOnUse" x1="344.628418" y1="123.740433" x2="163.846085" y2="-57.04192" gradientTransform="matrix(0.0232268,0.04023,-0.04023,0.0232268,7.327864,0.615653)">
<stop offset="0" style="stop-color:rgb(100%,65.490198%,14.901961%);stop-opacity:1;"/>
<stop offset="1" style="stop-color:rgb(100%,71.764708%,30.19608%);stop-opacity:1;"/>
</linearGradient>
<linearGradient id="linear3" gradientUnits="userSpaceOnUse" x1="254" y1="233.5" x2="254" y2="-168.666672" gradientTransform="matrix(0.0468795,0,0,0.0468795,0,10.079087)">
<stop offset="0" style="stop-color:rgb(25.882354%,25.882354%,25.882354%);stop-opacity:1;"/>
<stop offset="1" style="stop-color:rgb(38.039216%,38.039216%,38.039216%);stop-opacity:1;"/>
</linearGradient>
<linearGradient id="linear4" gradientUnits="userSpaceOnUse" x1="254" y1="233.5" x2="254" y2="-168.666672" gradientTransform="matrix(-0.0468795,0,0,0.0468795,23.814773,10.079087)">
<stop offset="0" style="stop-color:rgb(74.117649%,74.117649%,74.117649%);stop-opacity:1;"/>
<stop offset="1" style="stop-color:rgb(87.843138%,87.843138%,87.843138%);stop-opacity:1;"/>
</linearGradient>
</defs>
<g id="surface1">
<path style=" stroke:none;fill-rule:nonzero;fill:url(#radial0);" d="M 13.644531 21.027344 L 15.628906 21.027344 L 15.628906 20.03125 L 13.644531 20.03125 Z M 13.644531 21.027344 "/>
<path style=" stroke:none;fill-rule:nonzero;fill:url(#radial1);" d="M 10.171875 21.027344 L 8.1875 21.027344 L 8.1875 22.019531 L 10.171875 22.019531 Z M 10.171875 21.027344 "/>
<path style=" stroke:none;fill-rule:nonzero;fill:url(#radial2);" d="M 10.171875 21.027344 L 8.1875 21.027344 L 8.1875 20.03125 L 10.171875 20.03125 Z M 10.171875 21.027344 "/>
<path style=" stroke:none;fill-rule:nonzero;fill:url(#radial3);" d="M 13.644531 21.027344 L 15.628906 21.027344 L 15.628906 22.019531 L 13.644531 22.019531 Z M 13.644531 21.027344 "/>
<path style=" stroke:none;fill-rule:nonzero;fill:url(#linear0);" d="M 10.171875 20.777344 L 13.644531 20.777344 L 13.644531 22.019531 L 10.171875 22.019531 Z M 10.171875 20.777344 "/>
<path style=" stroke:none;fill-rule:nonzero;fill:url(#linear1);" d="M 11.90625 2.171875 C 17.113281 2.171875 21.335938 6.390625 21.335938 11.597656 C 21.335938 16.804688 17.113281 21.027344 11.90625 21.027344 C 6.703125 21.027344 2.480469 16.804688 2.480469 11.597656 C 2.480469 6.390625 6.703125 2.171875 11.90625 2.171875 Z M 11.90625 2.171875 "/>
<path style=" stroke:none;fill-rule:nonzero;fill:rgb(0%,0%,0%);fill-opacity:0.196078;" d="M 11.90625 21.027344 C 6.683594 21.027344 2.480469 16.820312 2.480469 11.597656 C 2.480469 11.566406 2.480469 11.539062 2.480469 11.507812 C 2.53125 16.6875 6.714844 20.839844 11.90625 20.839844 C 17.097656 20.839844 21.285156 16.6875 21.332031 11.507812 C 21.332031 11.539062 21.335938 11.566406 21.335938 11.597656 C 21.335938 16.820312 17.128906 21.027344 11.90625 21.027344 Z M 11.90625 21.027344 "/>
<path style=" stroke:none;fill-rule:nonzero;fill:rgb(100%,100%,100%);fill-opacity:0.392157;" d="M 11.90625 2.171875 C 6.683594 2.171875 2.480469 6.375 2.480469 11.597656 C 2.480469 11.628906 2.480469 11.660156 2.480469 11.691406 C 2.53125 6.511719 6.714844 2.355469 11.90625 2.355469 C 17.097656 2.355469 21.285156 6.511719 21.332031 11.691406 C 21.332031 11.660156 21.335938 11.628906 21.335938 11.597656 C 21.335938 6.375 17.128906 2.171875 11.90625 2.171875 Z M 11.90625 2.171875 "/>
<path style=" stroke:none;fill-rule:nonzero;fill:url(#linear2);" d="M 7.664062 14.046875 C 7.480469 13.726562 9.316406 12.511719 9.238281 12.148438 C 9.160156 11.789062 6.992188 11.425781 7.03125 11.058594 C 7.070312 10.691406 9.265625 10.785156 9.417969 10.449219 C 9.566406 10.113281 8.027344 8.542969 8.273438 8.269531 C 8.519531 7.996094 10.242188 9.363281 10.5625 9.179688 C 10.882812 8.992188 10.554688 6.820312 10.917969 6.742188 C 11.277344 6.664062 11.867188 8.785156 12.234375 8.824219 C 12.601562 8.863281 13.617188 6.910156 13.953125 7.0625 C 14.292969 7.210938 13.519531 9.269531 13.796875 9.519531 C 14.070312 9.765625 16.039062 8.785156 16.222656 9.105469 C 16.40625 9.425781 14.574219 10.636719 14.652344 11 C 14.726562 11.359375 16.898438 11.722656 16.859375 12.089844 C 16.820312 12.457031 14.621094 12.363281 14.472656 12.699219 C 14.320312 13.039062 15.863281 14.605469 15.617188 14.878906 C 15.371094 15.15625 13.648438 13.785156 13.328125 13.972656 C 13.007812 14.15625 13.332031 16.332031 12.972656 16.40625 C 12.609375 16.484375 12.023438 14.363281 11.65625 14.328125 C 11.289062 14.289062 10.273438 16.238281 9.933594 16.089844 C 9.597656 15.9375 10.367188 13.878906 10.09375 13.632812 C 9.820312 13.382812 7.851562 14.363281 7.664062 14.046875 Z M 7.664062 14.046875 "/>
<path style=" stroke:none;fill-rule:nonzero;fill:rgb(12.941177%,12.941177%,12.941177%);fill-opacity:1;" d="M 11.90625 2.101562 C 6.648438 2.101562 2.410156 6.339844 2.410156 11.597656 C 2.410156 16.859375 6.648438 21.097656 11.90625 21.097656 C 17.167969 21.097656 21.40625 16.859375 21.40625 11.597656 C 21.40625 6.339844 17.167969 2.101562 11.90625 2.101562 Z M 11.90625 2.242188 C 17.09375 2.242188 21.265625 6.414062 21.265625 11.597656 C 21.265625 16.785156 17.09375 20.957031 11.90625 20.957031 C 6.722656 20.957031 2.550781 16.785156 2.550781 11.597656 C 2.550781 6.414062 6.722656 2.242188 11.90625 2.242188 Z M 11.90625 2.242188 "/>
<path style=" stroke:none;fill-rule:nonzero;fill:url(#linear3);" d="M 6.933594 7.132812 C 6.664062 7.140625 6.449219 7.359375 6.449219 7.628906 L 6.449219 9.117188 L 2.292969 9.117188 C 2.09375 9.910156 1.984375 10.742188 1.984375 11.597656 C 1.984375 12.457031 2.09375 13.285156 2.292969 14.078125 L 6.449219 14.078125 L 6.449219 15.566406 C 6.449219 15.996094 6.953125 16.222656 7.273438 15.9375 L 11.738281 11.96875 C 11.960938 11.773438 11.960938 11.425781 11.738281 11.230469 L 7.273438 7.257812 C 7.1875 7.183594 7.074219 7.136719 6.957031 7.132812 C 6.949219 7.132812 6.941406 7.132812 6.933594 7.132812 Z M 6.933594 7.132812 "/>
<path style=" stroke:none;fill-rule:nonzero;fill:url(#linear4);" d="M 16.882812 7.132812 C 16.875 7.132812 16.863281 7.132812 16.855469 7.132812 C 16.738281 7.136719 16.628906 7.183594 16.539062 7.257812 L 12.074219 11.230469 C 11.855469 11.425781 11.855469 11.773438 12.074219 11.96875 L 16.539062 15.9375 C 16.859375 16.222656 17.363281 15.996094 17.363281 15.566406 L 17.363281 14.078125 L 21.519531 14.078125 C 21.722656 13.285156 21.832031 12.457031 21.832031 11.597656 C 21.832031 10.742188 21.722656 9.910156 21.519531 9.117188 L 17.363281 9.117188 L 17.363281 7.628906 C 17.363281 7.359375 17.148438 7.140625 16.882812 7.132812 Z M 16.882812 7.132812 "/>
<path style=" stroke:none;fill-rule:nonzero;fill:rgb(93.725491%,93.725491%,93.725491%);fill-opacity:0.313726;" d="M 6.933594 7.132812 C 6.664062 7.140625 6.449219 7.359375 6.449219 7.628906 L 6.449219 8 C 6.449219 7.730469 6.664062 7.511719 6.933594 7.503906 C 6.941406 7.503906 6.949219 7.503906 6.957031 7.503906 C 7.074219 7.507812 7.1875 7.554688 7.273438 7.628906 L 11.738281 11.597656 C 11.800781 11.652344 11.84375 11.714844 11.871094 11.785156 C 11.945312 11.597656 11.902344 11.371094 11.738281 11.230469 L 7.273438 7.257812 C 7.1875 7.183594 7.074219 7.136719 6.957031 7.132812 C 6.949219 7.132812 6.941406 7.132812 6.933594 7.132812 Z M 2.292969 9.117188 C 2.09375 9.910156 1.984375 10.742188 1.984375 11.597656 C 1.984375 11.660156 1.984375 11.722656 1.984375 11.785156 C 2 10.992188 2.105469 10.226562 2.292969 9.488281 L 6.449219 9.488281 L 6.449219 9.117188 Z M 2.292969 9.117188 "/>
<path style=" stroke:none;fill-rule:nonzero;fill:rgb(93.725491%,93.725491%,93.725491%);fill-opacity:1;" d="M 16.882812 7.132812 C 16.875 7.132812 16.863281 7.132812 16.855469 7.132812 C 16.738281 7.136719 16.628906 7.183594 16.539062 7.257812 L 12.074219 11.230469 C 11.914062 11.371094 11.871094 11.597656 11.945312 11.785156 C 11.972656 11.714844 12.015625 11.652344 12.074219 11.597656 L 16.539062 7.628906 C 16.628906 7.554688 16.738281 7.507812 16.855469 7.503906 C 16.863281 7.503906 16.875 7.503906 16.882812 7.503906 C 17.148438 7.511719 17.363281 7.730469 17.363281 8 L 17.363281 7.628906 C 17.363281 7.359375 17.148438 7.140625 16.882812 7.132812 Z M 17.363281 9.117188 L 17.363281 9.488281 L 21.519531 9.488281 C 21.707031 10.226562 21.8125 10.992188 21.828125 11.785156 C 21.828125 11.722656 21.832031 11.660156 21.832031 11.597656 C 21.832031 10.742188 21.722656 9.910156 21.519531 9.117188 Z M 17.363281 9.117188 "/>
<path style=" stroke:none;fill-rule:nonzero;fill:rgb(0%,0%,0%);fill-opacity:0.235294;" d="M 11.839844 11.847656 C 11.8125 11.890625 11.78125 11.933594 11.738281 11.96875 L 7.273438 15.9375 C 6.953125 16.222656 6.449219 15.996094 6.449219 15.570312 L 6.449219 16.066406 C 6.449219 16.492188 6.953125 16.71875 7.273438 16.433594 L 11.738281 12.464844 C 11.921875 12.304688 11.953125 12.046875 11.839844 11.847656 Z M 2.808594 14.078125 C 2.851562 14.246094 2.902344 14.414062 2.957031 14.574219 L 6.449219 14.574219 L 6.449219 14.078125 Z M 2.808594 14.078125 "/>
<path style=" stroke:none;fill-rule:nonzero;fill:rgb(0%,0%,0%);fill-opacity:0.235294;" d="M 11.976562 11.847656 C 11.859375 12.046875 11.894531 12.304688 12.074219 12.464844 L 16.539062 16.433594 C 16.859375 16.71875 17.363281 16.492188 17.363281 16.066406 L 17.363281 15.570312 C 17.363281 15.996094 16.859375 16.222656 16.539062 15.9375 L 12.074219 11.96875 C 12.035156 11.933594 12 11.890625 11.976562 11.847656 Z M 17.363281 14.078125 L 17.363281 14.574219 L 20.859375 14.574219 C 20.910156 14.414062 20.960938 14.246094 21.007812 14.078125 Z M 17.363281 14.078125 "/>
<path style="fill:none;stroke-width:11.338583;stroke-linecap:round;stroke-linejoin:round;stroke:rgb(12.941177%,12.941177%,12.941177%);stroke-opacity:0.954839;stroke-miterlimit:4;" d="M 559.001765 575.063225 C 537.271556 575.693086 519.950375 593.329198 519.950375 615.059407 L 519.950375 735.047955 L 184.864246 735.047955 C 168.802787 798.978861 159.984731 866.059073 159.984731 935.028869 C 159.984731 1004.313594 168.802787 1071.078876 184.864246 1135.009782 L 519.950375 1135.009782 L 519.950375 1254.99833 C 519.950375 1289.640693 560.576418 1307.906666 586.400725 1284.916734 L 946.366369 964.947273 C 964.317412 949.200744 964.317412 921.171923 946.366369 905.425395 L 586.400725 585.141003 C 579.472253 579.157322 570.339266 575.378155 560.891349 575.063225 C 560.261488 575.063225 559.631627 575.063225 559.001765 575.063225 Z M 559.001765 575.063225 " transform="matrix(0.0124035,0,0,0.0124035,0,0)"/>
<path style="fill:none;stroke-width:3;stroke-linecap:round;stroke-linejoin:round;stroke:rgb(12.941177%,12.941177%,12.941177%);stroke-opacity:0.954839;stroke-miterlimit:4;" d="M 360.132276 -62.847863 C 365.798401 -62.681212 370.381297 -58.014991 370.381297 -52.26554 L 370.381297 -20.518572 L 459.039497 -20.518572 C 463.372417 -3.603521 465.705527 14.144784 465.705527 32.393042 C 465.705527 50.724625 463.372417 68.389604 459.039497 85.304656 L 370.381297 85.304656 L 370.381297 117.051624 C 370.381297 126.217415 359.632323 131.050287 352.799643 124.967535 L 257.558738 40.308953 C 252.892517 36.142684 252.892517 28.726725 257.558738 24.560456 L 352.799643 -60.181451 C 354.716126 -61.764633 357.049237 -62.764538 359.548998 -62.847863 C 359.715649 -62.847863 359.965625 -62.847863 360.132276 -62.847863 Z M 360.132276 -62.847863 " transform="matrix(0.0468795,0,0,0.0468795,0,10.079087)"/>
</g>
</svg>
